LazyVim.svg

<svg role="img" viewBox="0 0 24 24" xmlns="http://www.w3.org/2000/svg" id="Lazyvim--Streamline-Simple-Icons.svg" height="24" width="24"><desc>Lazyvim Streamline Icon: https://streamlinehq.com</desc><title>LazyVim</title><path d="M2.87 0a2.5 2.5 0 0 0 -0.697 0.1q-0.187 0.058 -0.351 0.147 -0.163 0.09 -0.297 0.213l-0.008 0.006q-0.133 0.124 -0.235 0.27a1.7 1.7 0 0 0 -0.27 0.643 1.8 1.8 0 0 0 0.105 1.023q0.072 0.164 0.176 0.308 0.105 0.14 0.24 0.26l0.007 0.004q0.137 0.12 0.299 0.205 0.159 0.084 0.348 0.14 0.32 0.093 0.682 0.092h2.8l-4.256 5.09 -0.618 0.733 0.01 0.008q-0.046 0.06 -0.088 0.124l-0.07 0.116L0.59 9.6q-0.03 0.06 -0.05 0.12l-0.006 0.016a1.8 1.8 0 0 0 -0.122 0.66q0 0.219 0.042 0.423 0.039 0.204 0.12 0.4 0.084 0.2 0.21 0.372a2 2 0 0 0 1.067 0.746h0.002q0.397 0.117 0.87 0.117H9.65q0.169 0 0.338 -0.02 0.163 -0.02 0.312 -0.06l0.044 -0.013q0.185 -0.056 0.344 -0.144a1.6 1.6 0 0 0 0.297 -0.21l0.012 -0.01a1.65 1.65 0 0 0 0.414 -0.592q0.063 -0.157 0.095 -0.33a2 2 0 0 0 0.004 -0.672 1.6 1.6 0 0 0 -0.084 -0.304l-0.02 -0.055a1.5 1.5 0 0 0 -0.436 -0.58l-0.006 -0.005a1.65 1.65 0 0 0 -0.635 -0.325 2.7 2.7 0 0 0 -0.675 -0.087H5.918l4.157 -4.95 0.243 -0.304a6 6 0 0 0 0.353 -0.486 2.1 2.1 0 0 0 0.262 -0.64q0.075 -0.315 0.074 -0.674 0 -0.46 -0.142 -0.83a1.7 1.7 0 0 0 -0.437 -0.648 1.8 1.8 0 0 0 -0.66 -0.39A2.6 2.6 0 0 0 8.938 0Zm12.36 6.062q-0.179 0 -0.347 0.024a2 2 0 0 0 -0.325 0.073q-0.18 0.054 -0.338 0.142a1.6 1.6 0 0 0 -0.29 0.21l-0.003 0.003a1.6 1.6 0 0 0 -0.394 0.56q-0.065 0.15 -0.097 0.317 -0.03 0.165 -0.032 0.337a1.7 1.7 0 0 0 0.135 0.655q0.07 0.162 0.171 0.3 0.098 0.131 0.225 0.242l0.01 0.012q0.133 0.114 0.29 0.197 0.155 0.082 0.335 0.134a2.4 2.4 0 0 0 0.658 0.09h2.673L13.82 14.24l-0.594 0.703 0.01 0.008 -0.088 0.123a1 1 0 0 0 -0.066 0.113l-0.057 0.112c-0.015 0.036 -0.046 0.097 -0.055 0.133a1.8 1.8 0 0 0 -0.118 0.64 2.1 2.1 0 0 0 0.158 0.796 1.87 1.87 0 0 0 0.83 0.912q0.19 0.102 0.406 0.166h0.001q0.192 0.057 0.404 0.085 0.214 0.03 0.437 0.03h6.678q0.168 0 0.325 -0.02 0.154 -0.02 0.304 -0.06l0.042 -0.012a1.7 1.7 0 0 0 0.33 -0.14q0.155 -0.083 0.288 -0.203l0.01 -0.01q0.134 -0.124 0.233 -0.265 0.103 -0.146 0.168 -0.308 0.06 -0.152 0.093 -0.318 0.03 -0.166 0.03 -0.34a1.8 1.8 0 0 0 -0.112 -0.605l-0.02 -0.05a1.5 1.5 0 0 0 -0.417 -0.56l-0.004 -0.004a1.6 1.6 0 0 0 -0.29 -0.19 2 2 0 0 0 -0.332 -0.128 2.4 2.4 0 0 0 -0.65 -0.083h-3.575l3.727 -4.435q0.154 -0.182 0.262 -0.314l0.234 -0.291a6 6 0 0 0 0.34 -0.47q0.085 -0.137 0.15 -0.293a2.4 2.4 0 0 0 0.102 -0.324 2.8 2.8 0 0 0 0.07 -0.65q0 -0.445 -0.14 -0.8a1.7 1.7 0 0 0 -0.423 -0.628 1.8 1.8 0 0 0 -0.639 -0.377 2.5 2.5 0 0 0 -0.804 -0.12Zm-11.39 9.23q-0.127 0 -0.256 0.016a1.5 1.5 0 0 0 -0.498 0.162q-0.12 0.068 -0.22 0.158l-0.001 0.004a1.2 1.2 0 0 0 -0.37 0.665 1.2 1.2 0 0 0 0.002 0.506 1.15 1.15 0 0 0 0.374 0.65l0.01 0.01a1.2 1.2 0 0 0 0.47 0.25q0.23 0.067 0.49 0.067h1.776l-2.833 3.39 -0.468 0.553 0.01 0.007 -0.078 0.124 -0.042 0.084c-0.014 0.03 -0.027 0.068 -0.042 0.097a1.3 1.3 0 0 0 -0.09 0.48q0 0.156 0.03 0.305 0.029 0.147 0.088 0.289 0.063 0.146 0.152 0.27a1.4 1.4 0 0 0 0.47 0.413q0.142 0.076 0.304 0.125 0.142 0.042 0.299 0.063 0.159 0.02 0.32 0.02h4.776q0.118 0 0.24 -0.014 0.118 -0.015 0.224 -0.044l0.034 -0.01q0.135 -0.041 0.249 -0.104 0.12 -0.066 0.219 -0.154l0.007 -0.008a1.2 1.2 0 0 0 0.303 -0.432q0.048 -0.113 0.07 -0.24a1.4 1.4 0 0 0 0.002 -0.486 1.2 1.2 0 0 0 -0.06 -0.222l-0.016 -0.042a1.14 1.14 0 0 0 -0.322 -0.426 1.2 1.2 0 0 0 -0.467 -0.24 1.8 1.8 0 0 0 -0.483 -0.06h-2.42l2.768 -3.294 0.167 -0.21 0.139 -0.183a2 2 0 0 0 0.106 -0.158q0.066 -0.104 0.112 -0.22a1.8 1.8 0 0 0 0.115 -0.472q0.014 -0.126 0.013 -0.247 0 -0.33 -0.103 -0.596a1.26 1.26 0 0 0 -0.32 -0.47 1.3 1.3 0 0 0 -0.478 -0.284 1.8 1.8 0 0 0 -0.596 -0.092z" fill="#000000" stroke-width="1"></path></svg>

<?xml version="1.0" encoding="UTF-8" standalone="no"?>
<!DOCTYPE svg PUBLIC "-//W3C//DTD SVG 1.1//EN" "http://www.w3.org/Graphics/SVG/1.1/DTD/svg11.dtd">
<svg width="24px" height="24px" version="1.1" xmlns="http://www.w3.org/2000/svg" xmlns:xlink="http://www.w3.org/1999/xlink" xml:space="preserve" xmlns:serif="http://www.serif.com/" style="fill-rule:evenodd;clip-rule:evenodd;stroke-linejoin:round;stroke-miterlimit:2;">
    <path d="M2.87,0C2.634,0 2.399,0.034 2.173,0.1C2.048,0.139 1.931,0.188 1.822,0.247C1.713,0.307 1.614,0.378 1.525,0.46L1.517,0.466C1.428,0.549 1.35,0.639 1.282,0.736C1.149,0.929 1.057,1.148 1.012,1.379C0.947,1.723 0.983,2.079 1.117,2.402C1.165,2.511 1.224,2.614 1.293,2.71C1.363,2.803 1.443,2.89 1.533,2.97L1.54,2.974C1.631,3.054 1.731,3.122 1.839,3.179C1.945,3.235 2.061,3.282 2.187,3.319C2.4,3.381 2.628,3.412 2.869,3.411L5.669,3.411L1.413,8.501L0.795,9.234L0.805,9.242C0.774,9.282 0.745,9.323 0.717,9.366L0.647,9.482L0.59,9.6C0.57,9.64 0.553,9.68 0.54,9.72L0.534,9.736C0.452,9.946 0.411,10.17 0.412,10.396C0.412,10.542 0.426,10.683 0.454,10.819C0.48,10.955 0.52,11.088 0.574,11.219C0.63,11.352 0.7,11.476 0.784,11.591C1.046,11.952 1.422,12.214 1.851,12.337L1.853,12.337C2.118,12.415 2.408,12.454 2.723,12.454L9.65,12.454C9.763,12.454 9.875,12.447 9.988,12.434C10.097,12.421 10.201,12.401 10.3,12.374L10.344,12.361C10.467,12.324 10.582,12.276 10.688,12.217C10.795,12.159 10.894,12.088 10.985,12.007L10.997,11.997C11.177,11.833 11.318,11.63 11.411,11.405C11.453,11.3 11.485,11.19 11.506,11.075C11.545,10.853 11.547,10.626 11.51,10.403C11.492,10.299 11.464,10.197 11.426,10.099L11.406,10.044C11.31,9.818 11.161,9.619 10.97,9.464L10.964,9.459C10.779,9.306 10.562,9.195 10.329,9.134C10.109,9.077 9.882,9.047 9.654,9.047L5.918,9.047L10.075,4.097L10.318,3.793C10.444,3.637 10.562,3.475 10.671,3.307C10.793,3.11 10.882,2.893 10.933,2.667C10.983,2.457 11.008,2.232 11.007,1.993C11.007,1.686 10.96,1.41 10.865,1.163C10.772,0.916 10.622,0.694 10.428,0.515C10.239,0.339 10.013,0.206 9.768,0.125C9.5,0.039 9.22,-0.004 8.938,0L2.87,0ZM15.23,6.062C15.111,6.062 14.995,6.07 14.883,6.086C14.773,6.101 14.664,6.126 14.558,6.159C14.438,6.195 14.325,6.242 14.22,6.301C14.116,6.36 14.019,6.43 13.93,6.511L13.927,6.514C13.757,6.67 13.622,6.861 13.533,7.074C13.49,7.174 13.457,7.28 13.436,7.391C13.416,7.501 13.405,7.613 13.404,7.728C13.405,7.953 13.451,8.176 13.539,8.383C13.586,8.491 13.643,8.591 13.71,8.683C13.775,8.77 13.85,8.851 13.935,8.925L13.945,8.937C14.034,9.013 14.13,9.079 14.235,9.134C14.338,9.189 14.45,9.233 14.57,9.268C14.784,9.328 15.006,9.359 15.228,9.358L17.901,9.358L13.82,14.24L13.226,14.943L13.236,14.951L13.148,15.074C13.124,15.11 13.102,15.148 13.082,15.187L13.025,15.299C13.01,15.335 12.979,15.396 12.97,15.432C12.892,15.636 12.852,15.853 12.852,16.072C12.852,16.345 12.906,16.615 13.01,16.868C13.176,17.257 13.468,17.579 13.84,17.78C13.967,17.848 14.102,17.903 14.246,17.946L14.247,17.946C14.375,17.984 14.51,18.012 14.651,18.031C14.794,18.051 14.939,18.061 15.088,18.061L21.766,18.061C21.878,18.061 21.986,18.054 22.091,18.041C22.194,18.028 22.295,18.008 22.395,17.981L22.437,17.969C22.552,17.934 22.662,17.887 22.767,17.829C22.87,17.774 22.966,17.706 23.055,17.626L23.065,17.616C23.154,17.533 23.232,17.445 23.298,17.351C23.367,17.254 23.423,17.151 23.466,17.043C23.506,16.942 23.537,16.836 23.559,16.725C23.579,16.614 23.589,16.501 23.589,16.385C23.587,16.178 23.549,15.974 23.477,15.78L23.457,15.73C23.364,15.513 23.221,15.321 23.04,15.17L23.036,15.166C22.947,15.092 22.849,15.029 22.746,14.976C22.639,14.924 22.528,14.881 22.414,14.848C22.202,14.791 21.983,14.763 21.764,14.765L18.189,14.765L21.916,10.33C22.019,10.209 22.106,10.104 22.178,10.016L22.412,9.725C22.533,9.574 22.646,9.417 22.752,9.255C22.809,9.164 22.859,9.066 22.902,8.962C22.944,8.857 22.978,8.748 23.004,8.638C23.053,8.425 23.076,8.207 23.074,7.988C23.074,7.691 23.027,7.425 22.934,7.188C22.842,6.95 22.697,6.735 22.511,6.56C22.326,6.391 22.109,6.263 21.872,6.183C21.612,6.099 21.341,6.059 21.068,6.063L15.23,6.062ZM3.84,15.292C3.755,15.292 3.67,15.297 3.584,15.308C3.41,15.332 3.241,15.387 3.086,15.47C3.006,15.515 2.933,15.568 2.866,15.628L2.865,15.632C2.673,15.808 2.543,16.041 2.495,16.297C2.46,16.464 2.46,16.636 2.497,16.803C2.546,17.055 2.677,17.284 2.871,17.453L2.881,17.463C3.017,17.58 3.178,17.666 3.351,17.713C3.504,17.758 3.668,17.78 3.841,17.78L5.617,17.78L2.784,21.17L2.316,21.723L2.326,21.73L2.248,21.854L2.206,21.938C2.192,21.968 2.179,22.006 2.164,22.035C2.104,22.188 2.073,22.351 2.074,22.515C2.074,22.619 2.084,22.721 2.104,22.82C2.123,22.918 2.153,23.014 2.192,23.109C2.234,23.206 2.285,23.296 2.344,23.379C2.467,23.55 2.628,23.692 2.814,23.792C2.909,23.843 3.01,23.884 3.118,23.917C3.213,23.945 3.312,23.966 3.417,23.98C3.523,23.993 3.63,24 3.737,24L8.513,24C8.592,24 8.672,23.995 8.753,23.986C8.832,23.976 8.906,23.961 8.977,23.942L9.011,23.932C9.101,23.905 9.184,23.87 9.26,23.828C9.34,23.784 9.413,23.733 9.479,23.674L9.486,23.666C9.618,23.546 9.721,23.399 9.789,23.234C9.821,23.159 9.844,23.079 9.859,22.994C9.888,22.833 9.889,22.669 9.861,22.508C9.848,22.432 9.828,22.358 9.801,22.286L9.785,22.244C9.713,22.079 9.603,21.932 9.463,21.818C9.327,21.705 9.167,21.623 8.996,21.578C8.838,21.536 8.676,21.516 8.513,21.518L6.093,21.518L8.861,18.224L9.028,18.014L9.167,17.831C9.205,17.78 9.24,17.727 9.273,17.673C9.317,17.604 9.354,17.53 9.385,17.453C9.444,17.302 9.483,17.143 9.5,16.981C9.509,16.897 9.514,16.815 9.513,16.734C9.513,16.514 9.479,16.315 9.41,16.138C9.341,15.959 9.231,15.798 9.09,15.668C8.953,15.54 8.79,15.443 8.612,15.384C8.42,15.32 8.218,15.289 8.016,15.292L3.84,15.292Z" style="fill:rgb(110,110,110);fill-rule:nonzero;"/>
</svg>
